X:491
T: Lianlian hang
N: C1149
O: China,Gansu, Lintao
S: I, 142]
R: Arbeitslied, Dahang HAOZI, fr Feststampfen]
M: 2/4
L: 1/16
K: F
c2fdc2c2 | c2fdc2c2 |
c2cdc2cF | G2A2G2C2 |
c2cdc2cF | G2A2G2C2 |
cccAcccA | G2GAC2CD |
F2G2GFD2 | C3DC4 |
F2FDF2FD | C2CDC2CC |
c2dddcBA | G3AG4 |
cccAcccA | G2GAC2CD |
F2G2GFD2 | C3DC4

@@@ Tune index: 6492
